src/assets/images/requestademo-list.svg

<svg width="32" height="32" viewBox="0 0 32 32" fill="none" xmlns="http://www.w3.org/2000/svg">
<g clip-path="url(#clip0_342_1316)">
<path d="M16.0904 6.71099C21.2617 6.69421 25.5231 10.8214 25.4722 15.9162C25.427 20.7201 21.6799 25.1884 16.2317 25.2164C10.9813 25.2388 6.79899 21.1507 6.78203 16C6.76508 10.883 10.9304 6.72777 16.0904 6.71099Z" fill="#3B45FF"/>
<path d="M22.33 29.4388C21.7705 29.3941 21.1997 29.2767 20.6458 29.3214C20.1089 29.3605 19.5381 29.4724 19.069 29.7185C18.2382 30.1547 17.4639 30.6971 16.6896 31.2228C16.277 31.5025 15.9379 31.4913 15.5367 31.2116C14.7624 30.6804 13.9994 30.1267 13.1629 29.6961C12.6712 29.4444 12.0665 29.3382 11.507 29.3158C10.6423 29.2822 9.76626 29.3717 8.90154 29.4332C8.46071 29.4612 8.20073 29.2767 8.02553 28.8852C7.74859 28.2644 7.40384 27.6772 7.16082 27.0509C6.73694 25.938 5.90048 25.2948 4.83231 24.8754C4.7871 24.8586 4.74753 24.8363 4.70232 24.8195C2.45859 23.8632 2.38512 23.852 2.74118 21.4696C2.93899 20.133 2.61684 19.0425 1.8143 18.0246C1.61083 17.7674 1.42433 17.499 1.24347 17.2249C0.395716 15.9443 0.254423 16.1512 1.24912 15.0159C2.71292 13.3438 3.06898 11.4927 2.65075 9.44583C2.46424 8.53985 2.79769 8.09805 3.58893 7.82961C3.70197 7.79046 3.79805 7.72336 3.90543 7.67302C5.63109 6.80806 6.91591 5.49942 7.7599 3.74712C8.09146 3.05366 8.65852 2.73116 9.46106 2.77963C10.1393 2.81878 10.8231 2.85233 11.5013 2.91944C12.1852 2.98096 12.7956 2.84674 13.3664 2.44408C14.0955 1.92958 14.8754 1.48777 15.5988 0.973268C15.9718 0.710423 16.2714 0.738385 16.6218 0.97886C17.1983 1.38152 17.8312 1.71706 18.3738 2.15887C19.2837 2.89707 20.3124 3.03129 21.4257 2.90826C22.0587 2.84115 22.6917 2.83555 23.3247 2.75726C23.7769 2.70133 24.0312 2.89707 24.212 3.27176C24.5398 3.94286 24.9298 4.59158 25.2067 5.27945C25.5854 6.21339 26.2693 6.78382 27.1566 7.19207C27.8178 7.49406 28.4904 7.78487 29.1121 8.15957C29.3438 8.29938 29.5699 8.64611 29.5755 8.90336C29.5925 9.73664 29.5303 10.5755 29.4512 11.4144C29.3777 12.1861 29.4681 12.8796 29.9711 13.5227C30.4741 14.1659 30.8754 14.8873 31.3558 15.5472C31.6497 15.9499 31.644 16.3022 31.3671 16.6936C31.0337 17.1746 30.768 17.7115 30.3724 18.1365C29.4286 19.1375 29.3438 20.3064 29.4568 21.5814C29.7055 24.3889 29.9768 23.6898 27.6483 24.758C26.3823 25.3396 25.3819 26.0498 24.9241 27.3864C24.8507 27.6045 24.6981 27.7947 24.6133 28.0128C24.2177 29.0697 23.6638 29.8695 22.3244 29.4444L22.33 29.4388ZM26.4162 16.1791C26.4388 10.5364 21.9118 6.00647 16.3222 5.89462C10.3653 5.77718 5.74224 10.7545 5.75354 15.961C5.76484 21.643 10.3427 26.2008 15.9888 26.3071C21.3353 26.4077 26.6536 21.9394 26.4162 16.1791Z" fill="#3B45FF"/>
<path d="M26.4161 16.1791C26.6478 21.9394 21.3296 26.4077 15.9887 26.3071C10.3426 26.2008 5.75909 21.6374 5.75344 15.961C5.74214 10.7545 10.3652 5.77717 16.3221 5.89462C21.9117 6.00647 26.4387 10.5363 26.4161 16.1791ZM16.0848 6.84533C10.9304 6.86211 6.76509 11.0173 6.7764 16.1344C6.79335 21.285 10.97 25.3731 16.2261 25.3507C21.6743 25.3228 25.4157 20.8544 25.4666 16.0505C25.5175 10.9558 21.2561 6.82855 16.0848 6.84533Z" fill="white"/>
<path d="M13.9205 19.0544C13.847 18.9817 13.7735 18.9146 13.7057 18.8419C13.6322 18.7692 13.5644 18.6853 13.4909 18.6126C13.4401 18.5623 13.3892 18.512 13.3383 18.4672C13.214 18.3554 14.0448 16.9181 14.1239 16.9964C14.2709 17.1362 14.4122 17.276 14.5648 17.4158C14.6608 17.4997 14.7174 17.4941 14.8078 17.4046C15.0621 17.1474 15.3164 16.8901 15.5764 16.6329C15.8647 16.3477 16.1585 16.0681 16.4524 15.7828C16.6333 15.6095 16.8028 15.4249 16.9837 15.2516C17.1306 15.1062 17.2776 14.9663 17.4245 14.8209C17.6336 14.614 17.8371 14.4015 18.0519 14.1946C18.2214 14.0324 18.391 13.8702 18.5605 13.708C18.7018 13.5682 18.8431 13.4228 18.9844 13.283C19.2048 13.0649 19.4252 12.8468 19.6457 12.6287C19.7643 12.5113 21.1886 13.3278 21.0416 13.4843C20.8382 13.7024 20.6347 13.9317 20.4256 14.1442C20.2165 14.3512 20.0017 14.5525 19.7982 14.7594C19.64 14.916 19.4874 15.0782 19.3235 15.2348C19.1596 15.397 18.9901 15.5535 18.8262 15.7213C18.6792 15.8667 18.5379 16.0177 18.3853 16.1631C18.2158 16.3309 18.0406 16.4931 17.871 16.6609C17.7071 16.823 17.5489 16.9852 17.3906 17.1474C17.2776 17.2592 17.1589 17.3655 17.0459 17.4773C16.9272 17.5948 16.8141 17.7122 16.6955 17.8241C16.5372 17.9807 16.379 18.1317 16.2207 18.2883C16.0964 18.4113 15.9777 18.5287 15.859 18.6518C15.7516 18.758 15.6499 18.8587 15.5425 18.9649C15.4182 19.088 15.2995 19.211 15.1695 19.3285C15.0508 19.4403 14.9378 19.5633 14.7795 19.6193C14.6891 19.6528 14.6043 19.6472 14.5252 19.5913" fill="white"/>
<path d="M20.9719 12.4087C21.2884 12.7219 21.2714 13.2756 20.8984 13.6503C20.5254 14.0249 19.9432 14.0753 19.6211 13.7621C19.2989 13.4489 19.3442 12.8953 19.7172 12.5206C20.0902 12.1459 20.6497 12.0956 20.9662 12.4087H20.9719Z" fill="white"/>
<path d="M14.1181 16.9892C13.8412 16.6704 13.5925 16.4243 13.3608 16.2398C12.53 15.5687 11.4844 16.7711 12.27 17.4925L14.5194 19.5785L13.3325 18.46" fill="white"/>
</g>
<defs>
<clipPath id="clip0_342_1316">
<rect width="32" height="32" fill="white"/>
</clipPath>
</defs>
</svg>

<svg xmlns="http://www.w3.org/2000/svg" width="32" height="32" fill="none"><g clip-path="url(#a)"><path fill="#3B45FF" d="M16.09 6.711c5.172-.017 9.433 4.11 9.382 9.205-.045 4.804-3.792 9.272-9.24 9.3-5.25.023-9.433-4.065-9.45-9.216-.017-5.117 4.148-9.272 9.308-9.289Z"/><path fill="#3B45FF" d="M22.33 29.439c-.56-.045-1.13-.162-1.684-.118-.537.04-1.108.151-1.577.397-.83.437-1.605.98-2.38 1.505-.412.28-.751.268-1.152-.011-.775-.532-1.538-1.085-2.374-1.516-.492-.252-1.097-.358-1.656-.38-.865-.034-1.74.056-2.605.117-.441.028-.701-.156-.876-.548-.277-.62-.622-1.208-.865-1.834-.424-1.113-1.26-1.756-2.329-2.176-.045-.016-.084-.039-.13-.055-2.243-.957-2.317-.968-1.96-3.35.197-1.337-.125-2.427-.928-3.445-.203-.258-.39-.526-.57-.8-.848-1.28-.99-1.074.005-2.21 1.464-1.671 1.82-3.522 1.402-5.57-.187-.905.147-1.347.938-1.615.113-.04.209-.107.316-.157 1.726-.865 3.01-2.174 3.855-3.926.331-.693.899-1.016 1.701-.967.678.039 1.362.072 2.04.14.684.061 1.295-.073 1.865-.476.73-.514 1.51-.956 2.233-1.47.373-.264.672-.236 1.023.005.576.403 1.21.738 1.752 1.18.91.738 1.938.872 3.052.75.633-.068 1.266-.073 1.899-.152.452-.056.706.14.887.515.328.67.718 1.32.995 2.007.378.934 1.062 1.505 1.95 1.913.66.302 1.333.593 1.955.968.232.14.458.486.464.743.017.834-.046 1.672-.125 2.511-.073.772.017 1.466.52 2.109s.904 1.364 1.385 2.024c.294.403.288.755.011 1.147-.333.48-.599 1.018-.995 1.443-.943 1-1.028 2.17-.915 3.444.248 2.808.52 2.109-1.809 3.177-1.266.582-2.266 1.292-2.724 2.628-.073.219-.226.409-.31.627-.396 1.057-.95 1.856-2.29 1.431l.006-.005Zm4.086-13.26c.023-5.643-4.504-10.173-10.094-10.284-5.957-.118-10.58 4.86-10.568 10.066.01 5.682 4.589 10.24 10.235 10.346 5.346.1 10.665-4.368 10.427-10.128Z"/><path fill="#fff" d="M26.416 16.18c.232 5.76-5.086 10.228-10.427 10.127-5.646-.106-10.23-4.67-10.236-10.346-.01-5.207 4.612-10.184 10.57-10.066 5.589.111 10.116 4.641 10.093 10.284ZM16.085 6.844c-5.155.017-9.32 4.172-9.309 9.29.017 5.15 4.194 9.238 9.45 9.216 5.448-.028 9.19-4.497 9.24-9.3.051-5.095-4.21-9.222-9.381-9.206Z"/><path fill="#fff" d="M13.92 19.054c-.073-.072-.146-.14-.214-.212-.074-.073-.142-.157-.215-.23-.05-.05-.102-.1-.153-.145-.124-.112.707-1.549.786-1.47.147.14.288.279.44.419.097.084.153.078.244-.011.254-.258.508-.515.768-.772.289-.285.582-.565.876-.85.181-.173.35-.358.532-.531.147-.146.294-.286.44-.431.21-.207.413-.42.628-.626l.509-.487c.14-.14.282-.285.423-.425l.662-.654c.118-.118 1.543.699 1.396.855-.204.218-.407.448-.616.66-.21.207-.424.409-.628.615-.158.157-.31.32-.474.476-.164.162-.334.319-.498.486-.147.146-.288.297-.44.442-.17.168-.345.33-.515.498-.164.162-.322.324-.48.486-.113.112-.232.219-.345.33-.119.118-.232.235-.35.347-.159.157-.317.308-.475.464-.125.123-.243.24-.362.364l-.316.313c-.125.123-.243.246-.373.363-.12.112-.232.235-.39.291a.259.259 0 0 1-.255-.028"/><path fill="#fff" d="M20.972 12.409c.316.313.3.867-.074 1.241-.373.375-.955.425-1.277.112-.322-.313-.277-.867.096-1.241.373-.375.933-.425 1.25-.112h.005ZM14.118 16.99a5.908 5.908 0 0 0-.757-.75c-.831-.671-1.877.531-1.091 1.253l2.25 2.085-1.188-1.118"/></g><defs><clipPath id="a"><path fill="#fff" d="M0 0h32v32H0z"/></clipPath></defs></svg>
